X:1
T: Miss Clementina Loughman
C:Nathaniel Gow
R:Strathspey
Q: 128
K:F
M:4/4
L:1/16
|:AB|c4 f3d c2BA c2de|f3d c2A2 G4-G2AB|c4 f3d c2BA c2ag|f2d2 c2A2 F6:|
cB|A3B c2c2 d2B2 B2d2|c2A2 f2A2 G6 cB|A3B c2c2 d2B2 d2g2|e2g2 c2e2 f4 F2cB|
A3B c2c2 d2B2 B2d2|c2ag f2A2 G6 cB|A2c2 f2_e2 d2B2 g2b2|bagf cfeg f4 F2cB|
A2F2 F2F2 F3G A3B|c2c2 c2BA A2G2 G2cB|A2F2 F2A2 B2d2 G2B2|A2c2 E2G2 F4 F2c2|
f4 g2fg a3g f2d2|c2BA f2a2 g4 g2a2|f3a g2fg a3g f2d2|c2BA f2A2 F4 F2c2|
f4 g2fg a3g f2c2|B2g2 A2f2 G3A B2d2|c2a2 A2c2 d2f2 B2b2|a2gf cfeg f4 F2||
